!!!OTL: 1421. Husarenliebe.
!!!ARE: Europa, Mitteleuropa, Deutschland, Thueringen; Schlesien
!!!SCT: E1421
!!!TXL: @@DE
!!!YEM: Copyright 1995, estate of Helmut Schaffrath.
**kern	**text
*ICvox	*
*M2/4	*
*k[b-]	*
*F:	*
!LO:TX:a:t=Mäßig.	!
!LO:TX:a:t=Allgemein bekannte Mel. aus Thüringen, Schleſien rc.	!
{8c	Wohl-
=1	=1
8f	-an,
8a	die
8cc	Ʒeit
8ff	iſt
=2	=2
4cc	kom-
8a}	-men,
{8a	mein
=3	=3
8b-/	Pferd
8b-/	das
8g	muß
8g	ge-
=4	=4
8a	-ſat-
8a	-telt
8a}	ſein
{8c	ich
=5	=5
8f	hab
8a	mirs
8cc	vor-
8ff	-ge-
=6	=6
4cc	-nom-
8a}	-men,
{8a	ge-
=7	=7
8b-	-rit-
8b-	-ten
8g	muß
8g	es
=8	=8
4f	ſein.
8r}	.
{8cc^	Geh
=9	=9
8b-	du
8b-	nur
8g	hin,
8g	ich
=10	=10
8a	hab
8a	mein
8a}	Theil,
{8cc	ich
=11	=11
8b-	führ
8b-	dich
8g	nur
8g	am
=12	=12
8a	Nar-
8a	-ren-
8a}	-ſeil;
{16c	oh-
16c	-ne
=13	=13
8f	dich
8a	kann
8cc	ich
8ff	ſchon
=14	=14
4cc	le-
8a}	-ben,
{16cc	oh-
16cc	-ne
=15	=15
8b-/	dich
8b-/	kann
8g	ich
8g	ſchon
=16	=16
4f	ſein.
8r}	.
{8cc^	Geh
=17	=17
8b-	du
8b-	nur
8g	hin,
8g	ich
=18	=18
8a	hab
8a	mein
8a}	Theil,
{8cc	ich
=19	=19
8b-	führ
8b-	dich
8g	nur
8g	am
=20	=20
8a	Nar-
8a	-ren-
8a}	-ſeil;
{16c	oh-
16c	-ne
=21	=21
8f	dich
8a	kann
8cc	ich
8ff	ſchon
=22	=22
4cc	le-
8a}	-ben,
{16cc	oh-
16cc	-ne
=23	=23
8b-/	dich
8b-/	kann
8g	ich
8g	ſchon
=24	=24
4f	ſein.
8r}	.
==	==
!!!AGN: Staende -, Soldaten - Lied, Liebe
!!!ONB: ESAC (Essen Associative Code) Database: ERK3
!!!AMT: simple duple
!!!AIN: vox
!!!EED: Helmut Schaffrath
!!!EEV: 1.0
!!!GTL: Staendelieder (Berufslieder). 1. Soldaten- und Kriegslieder. Soldatenlieder seit dem 30jaehr. Kriege.
!!!URL-scan: https://rosdok.uni-rostock.de/mcrviewer/recordIdentifier/rosdok_ppn745177999/iview2/phys_0285.iview2?x=-128.77276441889308&y=1843.7134607101325&scale=0.5870222003877485&rotation=0&layout=singlePageLayout
!!!ENC: Anna Maria Matuszewska
!!!EEV: 2024/12/31
*-	*-
